ru/_assets/tracker/svg/pause.svg

<svg width="85" height="20" viewBox="0 0 85 20" fill="none" xmlns="http://www.w3.org/2000/svg">
<g clip-path="url(#clip0_3479_35392)">
<path fill-rule="evenodd" clip-rule="evenodd" d="M12 14.125C14.2782 14.125 16.125 12.2782 16.125 10C16.125 7.72182 14.2782 5.875 12 5.875C9.72182 5.875 7.875 7.72182 7.875 10C7.875 12.2782 9.72182 14.125 12 14.125ZM12 15.25C14.8995 15.25 17.25 12.8995 17.25 10C17.25 7.1005 14.8995 4.75 12 4.75C9.1005 4.75 6.75 7.1005 6.75 10C6.75 12.8995 9.1005 15.25 12 15.25ZM13.3125 7.9375C13.7267 7.9375 14.0625 8.27329 14.0625 8.6875V11.3125C14.0625 11.7267 13.7267 12.0625 13.3125 12.0625C12.8983 12.0625 12.5625 11.7267 12.5625 11.3125V8.6875C12.5625 8.27329 12.8983 7.9375 13.3125 7.9375ZM11.4375 8.6875C11.4375 8.27329 11.1017 7.9375 10.6875 7.9375C10.2733 7.9375 9.9375 8.27329 9.9375 8.6875V11.3125C9.9375 11.7267 10.2733 12.0625 10.6875 12.0625C11.1017 12.0625 11.4375 11.7267 11.4375 11.3125V8.6875Z" fill="#C0600F"/>
</g>
<path d="M30.085 9.931H25.301V14H24.079V4.679H25.301V8.826H30.085V4.679H31.32V14H30.085V9.931ZM37.2825 12.713C37.2045 12.869 37.1049 13.0337 36.9835 13.207C36.8622 13.3717 36.7105 13.5233 36.5285 13.662C36.3465 13.8007 36.1299 13.9133 35.8785 14C35.6359 14.0867 35.3499 14.13 35.0205 14.13C34.4139 14.13 33.9242 13.961 33.5515 13.623C33.1789 13.2763 32.9925 12.7823 32.9925 12.141C32.9925 11.4043 33.2482 10.8627 33.7595 10.516C34.2795 10.1693 35.0162 9.996 35.9695 9.996H37.2305V9.437C37.2305 8.969 37.1092 8.63533 36.8665 8.436C36.6239 8.23667 36.2079 8.137 35.6185 8.137C35.2025 8.137 34.8082 8.20633 34.4355 8.345C34.0629 8.475 33.7292 8.62667 33.4345 8.8V7.773C33.6772 7.62567 34.0022 7.48267 34.4095 7.344C34.8255 7.19667 35.2805 7.123 35.7745 7.123C36.6239 7.123 37.2695 7.30067 37.7115 7.656C38.1535 8.00267 38.3745 8.54433 38.3745 9.281V12.908C38.3745 12.986 38.3745 13.077 38.3745 13.181C38.3832 13.2763 38.3875 13.376 38.3875 13.48C38.3962 13.584 38.4049 13.6837 38.4135 13.779C38.4222 13.8657 38.4309 13.9393 38.4395 14H37.3995C37.3735 13.8787 37.3475 13.7097 37.3215 13.493C37.3042 13.2677 37.2955 13.0727 37.2955 12.908L37.2825 12.713ZM35.2675 13.103C35.6229 13.103 35.9262 13.0293 36.1775 12.882C36.4289 12.7347 36.6325 12.5657 36.7885 12.375C36.9445 12.1757 37.0572 11.985 37.1265 11.803C37.1959 11.6123 37.2305 11.478 37.2305 11.4V10.906H36.0865C35.4019 10.906 34.9035 11.0057 34.5915 11.205C34.2882 11.3957 34.1365 11.686 34.1365 12.076C34.1365 12.3793 34.2275 12.6263 34.4095 12.817C34.5915 13.0077 34.8775 13.103 35.2675 13.103ZM43.0298 7.253H48.4378V14H47.2938V8.228H44.1738V14H43.0298V7.253ZM54.2562 12.713C54.1782 12.869 54.0785 13.0337 53.9572 13.207C53.8358 13.3717 53.6842 13.5233 53.5022 13.662C53.3202 13.8007 53.1035 13.9133 52.8522 14C52.6095 14.0867 52.3235 14.13 51.9942 14.13C51.3875 14.13 50.8978 13.961 50.5252 13.623C50.1525 13.2763 49.9662 12.7823 49.9662 12.141C49.9662 11.4043 50.2218 10.8627 50.7332 10.516C51.2532 10.1693 51.9898 9.996 52.9432 9.996H54.2042V9.437C54.2042 8.969 54.0828 8.63533 53.8402 8.436C53.5975 8.23667 53.1815 8.137 52.5922 8.137C52.1762 8.137 51.7818 8.20633 51.4092 8.345C51.0365 8.475 50.7028 8.62667 50.4082 8.8V7.773C50.6508 7.62567 50.9758 7.48267 51.3832 7.344C51.7992 7.19667 52.2542 7.123 52.7482 7.123C53.5975 7.123 54.2432 7.30067 54.6852 7.656C55.1272 8.00267 55.3482 8.54433 55.3482 9.281V12.908C55.3482 12.986 55.3482 13.077 55.3482 13.181C55.3568 13.2763 55.3612 13.376 55.3612 13.48C55.3698 13.584 55.3785 13.6837 55.3872 13.779C55.3958 13.8657 55.4045 13.9393 55.4132 14H54.3732C54.3472 13.8787 54.3212 13.7097 54.2952 13.493C54.2778 13.2677 54.2692 13.0727 54.2692 12.908L54.2562 12.713ZM52.2412 13.103C52.5965 13.103 52.8998 13.0293 53.1512 12.882C53.4025 12.7347 53.6062 12.5657 53.7622 12.375C53.9182 12.1757 54.0308 11.985 54.1002 11.803C54.1695 11.6123 54.2042 11.478 54.2042 11.4V10.906H53.0602C52.3755 10.906 51.8772 11.0057 51.5652 11.205C51.2618 11.3957 51.1102 11.686 51.1102 12.076C51.1102 12.3793 51.2012 12.6263 51.3832 12.817C51.5652 13.0077 51.8512 13.103 52.2412 13.103ZM60.4619 13.922C60.3059 14.3293 60.1413 14.6847 59.9679 14.988C59.7946 15.3 59.5996 15.5643 59.3829 15.781C59.1663 15.9977 58.9236 16.158 58.6549 16.262C58.3863 16.3747 58.0786 16.431 57.7319 16.431C57.5586 16.431 57.3983 16.418 57.2509 16.392C57.1036 16.3747 56.9693 16.34 56.8479 16.288V15.183C56.9433 15.2523 57.0646 15.3043 57.2119 15.339C57.3593 15.3823 57.5196 15.404 57.6929 15.404C58.0136 15.404 58.2779 15.326 58.4859 15.17C58.6939 15.0227 58.8933 14.7843 59.0839 14.455L56.3409 7.253H57.6019L59.7469 12.947L61.8789 7.253H62.9839L60.4619 13.922ZM68.9007 12.037C68.9007 12.4183 68.8227 12.7433 68.6667 13.012C68.5193 13.272 68.3157 13.4887 68.0557 13.662C67.7957 13.8267 67.4923 13.9437 67.1457 14.013C66.8077 14.091 66.4523 14.13 66.0797 14.13C65.5857 14.13 65.148 14.078 64.7667 13.974C64.394 13.87 64.0993 13.7443 63.8827 13.597V12.57C64.1513 12.7347 64.472 12.8647 64.8447 12.96C65.2173 13.0553 65.6203 13.103 66.0537 13.103C66.5477 13.103 66.9593 13.025 67.2887 12.869C67.6267 12.7043 67.7957 12.427 67.7957 12.037C67.7957 11.6557 67.6527 11.387 67.3667 11.231C67.0893 11.075 66.6603 10.997 66.0797 10.997H65.1827V10.074H66.1187C66.5953 10.074 66.9593 9.98733 67.2107 9.814C67.462 9.64067 67.5877 9.38933 67.5877 9.06C67.5877 8.88667 67.5443 8.74367 67.4577 8.631C67.3797 8.50967 67.2713 8.41433 67.1327 8.345C66.994 8.267 66.8293 8.215 66.6387 8.189C66.4567 8.15433 66.2617 8.137 66.0537 8.137C65.655 8.137 65.2823 8.18467 64.9357 8.28C64.5977 8.37533 64.29 8.50967 64.0127 8.683V7.656C64.238 7.50867 64.5283 7.383 64.8837 7.279C65.2477 7.175 65.668 7.123 66.1447 7.123C66.968 7.123 67.5877 7.279 68.0037 7.591C68.4283 7.903 68.6407 8.35367 68.6407 8.943C68.6407 9.385 68.5193 9.73167 68.2767 9.983C68.0427 10.2343 67.709 10.4077 67.2757 10.503C67.813 10.5723 68.216 10.7413 68.4847 11.01C68.762 11.2787 68.9007 11.621 68.9007 12.037ZM75.9476 13.428C75.8522 13.4973 75.7352 13.571 75.5966 13.649C75.4579 13.727 75.2889 13.805 75.0896 13.883C74.8902 13.9523 74.6649 14.0087 74.4136 14.052C74.1622 14.104 73.8806 14.13 73.5686 14.13C72.4332 14.13 71.5709 13.8223 70.9816 13.207C70.3922 12.5917 70.0976 11.7293 70.0976 10.62C70.0976 10.074 70.1756 9.58433 70.3316 9.151C70.4962 8.71767 70.7216 8.35367 71.0076 8.059C71.2936 7.75567 71.6316 7.526 72.0216 7.37C72.4116 7.20533 72.8362 7.123 73.2956 7.123C73.7809 7.123 74.2142 7.20533 74.5956 7.37C74.9769 7.53467 75.2889 7.77733 75.5316 8.098C75.7829 8.41867 75.9519 8.81733 76.0386 9.294C76.1339 9.762 76.1339 10.308 76.0386 10.932H71.2806C71.3239 11.66 71.5406 12.206 71.9306 12.57C72.3206 12.9253 72.9012 13.103 73.6726 13.103C74.1926 13.103 74.6389 13.0293 75.0116 12.882C75.3842 12.7347 75.6962 12.5743 75.9476 12.401V13.428ZM73.2696 8.137C72.7756 8.137 72.3509 8.28867 71.9956 8.592C71.6402 8.89533 71.4149 9.35467 71.3196 9.97H74.9466C74.9812 9.346 74.8382 8.88667 74.5176 8.592C74.1969 8.28867 73.7809 8.137 73.2696 8.137Z" fill="#C0600F"/>
<defs>
<clipPath id="clip0_3479_35392">
<rect width="12" height="12" fill="white" transform="translate(6 4)"/>
</clipPath>
</defs>
</svg>

<svg xmlns="http://www.w3.org/2000/svg" width="85" height="20" fill="none" viewBox="0 0 85 20">
    <g clip-path="url(#clip0_3479_35392)">
        <path fill="#C0600F" fill-rule="evenodd" d="M12 14.125a4.125 4.125 0 1 0 0-8.25 4.125 4.125 0 0 0 0 8.25Zm0 1.125a5.25 5.25 0 1 0 0-10.5 5.25 5.25 0 0 0 0 10.5Zm1.313-7.313a.75.75 0 0 1 .75.75v2.626a.75.75 0 0 1-1.5 0V8.687a.75.75 0 0 1 .75-.75Zm-1.876.75a.75.75 0 0 0-1.5 0v2.626a.75.75 0 0 0 1.5 0V8.687Z" clip-rule="evenodd"/>
    </g>
    <path fill="#C0600F" d="M30.085 9.931h-4.784V14h-1.222V4.679h1.222v4.147h4.784V4.679h1.235V14h-1.235V9.931Zm7.197 2.782c-.077.156-.177.32-.298.494a2.26 2.26 0 0 1-1.105.793c-.243.087-.53.13-.858.13-.607 0-1.097-.169-1.47-.507-.372-.347-.559-.84-.559-1.482 0-.737.256-1.278.768-1.625.52-.347 1.256-.52 2.21-.52h1.26v-.559c0-.468-.12-.802-.363-1.001-.243-.2-.66-.299-1.248-.299-.416 0-.81.07-1.184.208-.372.13-.706.282-1 .455V7.773c.242-.147.567-.29.974-.429a4.063 4.063 0 0 1 1.366-.221c.849 0 1.495.178 1.937.533.441.347.662.888.662 1.625v3.9c.01.095.014.195.014.299.008.104.017.204.026.299.008.087.017.16.026.221H37.4a5.934 5.934 0 0 1-.078-.507 7.787 7.787 0 0 1-.027-.585l-.013-.195Zm-2.014.39c.355 0 .658-.074.91-.221.25-.147.455-.316.61-.507.157-.2.27-.39.339-.572.069-.19.103-.325.103-.403v-.494h-1.143c-.685 0-1.184.1-1.495.299-.304.19-.456.481-.456.871 0 .303.091.55.273.741.183.19.468.286.858.286Zm7.762-5.85h5.408V14h-1.144V8.228h-3.12V14H43.03V7.253Zm11.226 5.46c-.078.156-.178.32-.299.494a2.264 2.264 0 0 1-1.105.793c-.242.087-.528.13-.858.13-.606 0-1.096-.169-1.469-.507-.372-.347-.559-.84-.559-1.482 0-.737.256-1.278.767-1.625.52-.347 1.257-.52 2.21-.52h1.261v-.559c0-.468-.121-.802-.364-1.001-.243-.2-.659-.299-1.248-.299-.416 0-.81.07-1.183.208-.373.13-.706.282-1 .455V7.773a5.05 5.05 0 0 1 .974-.429 4.063 4.063 0 0 1 1.365-.221c.85 0 1.495.178 1.937.533.442.347.663.888.663 1.625v3.9c.009.095.013.195.013.299l.026.299c.009.087.017.16.026.221h-1.04a5.934 5.934 0 0 1-.078-.507 7.734 7.734 0 0 1-.026-.585l-.013-.195Zm-2.015.39c.355 0 .659-.074.91-.221.252-.147.455-.316.611-.507.156-.2.269-.39.338-.572.07-.19.104-.325.104-.403v-.494H53.06c-.684 0-1.183.1-1.495.299-.303.19-.455.481-.455.871 0 .303.091.55.273.741.182.19.468.286.858.286Zm8.22.819c-.155.407-.32.763-.493 1.066a3.55 3.55 0 0 1-.585.793 2.09 2.09 0 0 1-.728.481 2.368 2.368 0 0 1-.923.169c-.173 0-.334-.013-.481-.039a1.447 1.447 0 0 1-.403-.104v-1.105c.095.07.217.121.364.156a1.7 1.7 0 0 0 .48.065c.322 0 .586-.078.794-.234.208-.147.407-.386.598-.715L56.34 7.253h1.26l2.146 5.694 2.132-5.694h1.105l-2.522 6.669Zm8.44-1.885c0 .381-.078.706-.234.975-.148.26-.351.477-.611.65a2.65 2.65 0 0 1-.91.351 4.728 4.728 0 0 1-1.066.117c-.494 0-.932-.052-1.313-.156-.373-.104-.668-.23-.884-.377V12.57c.268.165.589.295.962.39.372.095.775.143 1.209.143.494 0 .905-.078 1.235-.234.338-.165.507-.442.507-.832 0-.381-.143-.65-.43-.806-.277-.156-.706-.234-1.286-.234h-.897v-.923h.936c.476 0 .84-.087 1.092-.26.251-.173.377-.425.377-.754a.684.684 0 0 0-.13-.429.805.805 0 0 0-.325-.286 1.38 1.38 0 0 0-.494-.156 3.126 3.126 0 0 0-.585-.052 4.21 4.21 0 0 0-1.118.143c-.338.095-.646.23-.923.403V7.656a3.28 3.28 0 0 1 .87-.377 4.604 4.604 0 0 1 1.262-.156c.823 0 1.443.156 1.859.468.424.312.637.763.637 1.352 0 .442-.122.789-.364 1.04-.234.251-.568.425-1.001.52.537.07.94.238 1.209.507.277.269.416.611.416 1.027Zm7.047 1.391a3.646 3.646 0 0 1-.858.455c-.2.07-.425.126-.676.169a4.186 4.186 0 0 1-.845.078c-1.136 0-1.998-.308-2.587-.923-.59-.615-.884-1.478-.884-2.587 0-.546.078-1.036.234-1.469a3.15 3.15 0 0 1 .676-1.092 2.812 2.812 0 0 1 1.014-.689c.39-.165.814-.247 1.274-.247.485 0 .918.082 1.3.247a2.3 2.3 0 0 1 .936.728c.25.32.42.72.507 1.196.095.468.095 1.014 0 1.638H71.28c.043.728.26 1.274.65 1.638.39.355.97.533 1.742.533.52 0 .966-.074 1.339-.221.372-.147.684-.308.936-.481v1.027ZM73.27 8.137c-.494 0-.92.152-1.274.455-.356.303-.581.763-.676 1.378h3.627c.034-.624-.109-1.083-.43-1.378-.32-.303-.736-.455-1.247-.455Z"/>
    <defs>
        <clipPath id="clip0_3479_35392">
            <path fill="#fff" d="M6 4h12v12H6z"/>
        </clipPath>
    </defs>
</svg>
